X:110
T:Guilderoy Reel
M:2/4
L:1/16
K:Amix
AG|E2AB ABcd|efec d2cd|acAB ABcA|BGEF G2AG|E2AB ABcd|
efec d2cd|efaf gecB|A2B2A2::ef|g2>a2 gfef|gage d2cd|
ecAB ABcA|BGEF G2AG|E2AB ABcd|efec d2cd|efaf gedB|A2B2A2:|
